src/assets/challenge-icon.svg

<svg width="17" height="17" viewBox="0 0 17 17" fill="none" xmlns="http://www.w3.org/2000/svg">
<g clip-path="url(#clip0)">
<path d="M16.5607 5.22903L12.2514 0.919781C12.1302 0.798563 11.9658 0.730469 11.7944 0.730469H5.70556C5.53416 0.730469 5.36975 0.798563 5.24853 0.919781L0.939313 5.22903C0.818094 5.35025 0.75 5.51466 0.75 5.68603V11.7749C0.75 11.9463 0.818094 12.1107 0.939313 12.2319L5.24856 16.5412C5.36978 16.6624 5.53419 16.7305 5.70559 16.7305H11.7944C11.9659 16.7305 12.1302 16.6624 12.2515 16.5412L16.5607 12.2319C16.6819 12.1107 16.75 11.9463 16.75 11.7749V5.68603C16.75 5.51463 16.6819 5.35022 16.5607 5.22903ZM15.4574 11.5072L11.5267 15.4378H5.97331L2.04262 11.5072V5.95378L5.97331 2.02309H11.5267L15.4574 5.95375V11.5072Z" fill="#F5A623"/>
<path d="M8.74983 5.1427C8.39289 5.1427 8.10352 5.43208 8.10352 5.78901V8.73048C8.10352 9.08745 8.39289 9.37679 8.74983 9.37679C9.1068 9.37679 9.39614 9.08745 9.39614 8.73048V5.78901C9.39614 5.43208 9.1068 5.1427 8.74983 5.1427Z" fill="#F5A623"/>
<path d="M9.20689 11.215C9.08652 11.0946 8.91992 11.0256 8.74986 11.0256C8.5798 11.0256 8.4132 11.0946 8.29283 11.215C8.17245 11.3353 8.10352 11.5019 8.10352 11.672C8.10352 11.842 8.17245 12.0087 8.29283 12.129C8.4132 12.2494 8.57952 12.3183 8.74986 12.3183C8.9202 12.3183 9.08652 12.2494 9.20689 12.129C9.32727 12.0087 9.3962 11.842 9.3962 11.672C9.39617 11.5019 9.3272 11.3353 9.20689 11.215Z" fill="#F5A623"/>
</g>
<defs>
<clipPath id="clip0">
<rect width="16" height="16" fill="white" transform="translate(0.75 0.730469)"/>
</clipPath>
</defs>
</svg>

<svg width="17" height="17" fill="none" xmlns="http://www.w3.org/2000/svg"><g clip-path="url(#a)" fill="#F5A623"><path d="M16.56 5.229 12.252.919a.646.646 0 0 0-.457-.189H5.706a.646.646 0 0 0-.457.19L.939 5.229a.646.646 0 0 0-.189.457v6.089c0 .171.068.336.19.457l4.309 4.31c.12.12.285.188.457.188h6.088a.647.647 0 0 0 .457-.189l4.31-4.31a.646.646 0 0 0 .189-.456V5.686a.646.646 0 0 0-.19-.457zm-1.103 6.278-3.93 3.93H5.973l-3.93-3.93V5.954l3.93-3.93h5.554l3.93 3.93v5.553z"/><path d="M8.75 5.143a.646.646 0 0 0-.646.646V8.73a.646.646 0 1 0 1.292 0V5.79a.646.646 0 0 0-.646-.646zM9.207 11.215a.65.65 0 0 0-.457-.19.65.65 0 0 0-.646.647c0 .17.068.337.189.457a.65.65 0 0 0 .914 0 .65.65 0 0 0 .19-.457.65.65 0 0 0-.19-.457z"/></g><defs><clipPath id="a"><path fill="#fff" transform="translate(.75 .73)" d="M0 0h16v16H0z"/></clipPath></defs></svg>
